icons/desktop/20/shield-blocked-20.svg

<svg width="20" height="20" viewBox="0 0 20 20" fill="none" xmlns="http://www.w3.org/2000/svg">
<path fill-rule="evenodd" clip-rule="evenodd" d="M0.256282 0.256282C0.59799 -0.0854272 1.15285 -0.0854272 1.49456 0.256282L19.7446 18.5063C20.0863 18.848 20.0863 19.4029 19.7446 19.7446C19.4029 20.0863 18.848 20.0863 18.5063 19.7446L15.2885 16.5268C14.2359 17.7249 13.0168 18.7627 11.7201 19.5317C11.1922 19.8435 10.5992 20.0004 10.0043 20.0004C9.40039 20.0004 8.79527 19.839 8.25433 19.517C6.36145 18.391 4.61529 16.7039 3.33636 14.767C2.64854 13.7222 2.16298 12.4514 1.893 10.9897L1.32269 7.89202C1.05263 6.42622 1.75982 4.9553 3.02386 4.26214L0.256282 1.49456C-0.0854272 1.15285 -0.0854272 0.59799 0.256282 0.256282ZM4.01312 5.72503C3.30824 6.0191 2.89941 6.79867 3.04339 7.57659L3.6137 10.6733C3.84067 11.9031 4.23839 12.9572 4.79827 13.8051C5.93427 15.5261 7.48081 17.0211 9.15081 18.0151C9.67475 18.327 10.3156 18.3307 10.8295 18.0278C12.0016 17.3329 13.108 16.3895 14.058 15.2963L4.34417 5.58245C4.23394 5.63033 4.12381 5.67877 4.01312 5.72503Z" fill="black"/>
<path d="M8.04437 1.59222C9.23734 0.797255 10.7631 0.8039 11.9321 1.60784C12.655 2.10381 13.4066 2.56398 14.1635 2.97796C14.9745 3.42196 15.8109 3.8233 16.6479 4.1723C18.1167 4.78439 18.9692 6.37368 18.6762 7.95257L18.1108 11.0004C17.9168 12.0474 17.6058 12.9944 17.1918 13.8344L15.8657 12.5092C16.0886 11.9523 16.2661 11.345 16.3891 10.6821L16.9555 7.63323C17.0994 6.8603 16.687 6.08548 15.975 5.78851C15.0811 5.41654 14.1895 4.98703 13.3246 4.51409C12.5157 4.07212 11.7138 3.58018 10.9418 3.05023C10.6529 2.8523 10.3177 2.75245 9.98284 2.75238C9.64784 2.75238 9.31009 2.85027 9.01409 3.04827C8.49124 3.39717 7.94965 3.72746 7.40081 4.04437L6.1137 2.75628C6.77262 2.39032 7.42245 2.00617 8.04437 1.59222Z" fill="black"/>
</svg>

<!-- This Source Code Form is subject to the terms of the Mozilla Public
   - License, v. 2.0. If a copy of the MPL was not distributed with this
   - file, You can obtain one at http://mozilla.org/MPL/2.0/. -->
<svg xmlns="http://www.w3.org/2000/svg" width="20" height="20" fill="context-fill" fill-opacity="context-fill-opacity" viewBox="0 0 20 20">
    <path fill-rule="evenodd" d="M.256.256a.876.876 0 0 1 1.239 0l18.25 18.25a.876.876 0 0 1-1.239 1.239l-3.217-3.218c-1.053 1.198-2.272 2.236-3.569 3.005a3.37 3.37 0 0 1-1.716.468 3.4 3.4 0 0 1-1.75-.483c-1.893-1.126-3.639-2.813-4.918-4.75-.687-1.045-1.173-2.316-1.443-3.777l-.57-3.098c-.27-1.466.437-2.937 1.7-3.63L.257 1.495a.876.876 0 0 1 0-1.239m3.757 5.469c-.705.294-1.114 1.074-.97 1.852l.57 3.096c.228 1.23.625 2.284 1.185 3.132 1.136 1.721 2.683 3.216 4.353 4.21a1.64 1.64 0 0 0 1.678.013c1.173-.695 2.279-1.638 3.229-2.732L4.344 5.582q-.165.073-.33.143" clip-rule="evenodd" />
    <path d="M8.044 1.592a3.45 3.45 0 0 1 3.888.016 26 26 0 0 0 4.716 2.564c1.469.612 2.321 2.202 2.028 3.78L18.111 11a10.9 10.9 0 0 1-.92 2.834l-1.325-1.325a9.6 9.6 0 0 0 .523-1.827l.567-3.049a1.67 1.67 0 0 0-.981-1.844 28 28 0 0 1-5.033-2.739 1.7 1.7 0 0 0-.96-.298 1.74 1.74 0 0 0-.968.296c-.523.35-1.064.68-1.613.996L6.114 2.756c.659-.366 1.308-.75 1.93-1.164" />
</svg>
